X: 249
T:Pange, lingua, gloriosi / Sing, my tongue, the Savior's glory
N: Derived from Jos2202-Pange_lingua_gloriosi.krn
C: Josquin des Prez
%%abc-version 2.0
%%abcx-abcm2ps-target-version 5.9.1 (29 Sep 2008)
%%abc-creator hum2abc beta
%%abcx-conversion-date 2019/02/12 16:15:51
%%abc-edited-by Jesse Rodin
%%abc-edited-by Victoria Chang
%%abcx-initial-encoding-date 2011/03/23/
%%humdrum-veritas 2784305092
%%humdrum-veritas-data 1423162172
%%linebreak <none>
%%barnumbers 0
L: 1/4
M: 2/1
Q: 1/2=120
%%staves [1 2 3 4]
V: 1 clef=treble
V: 2 clef=treble-8
V: 3 clef=treble-8
V: 4 clef=bass
K: C
[V:1] z8 | 
[V:2] B8 | 
[V:3] z8 | 
[V:4] z8 | 
[V:1] z8 | 
[V:2] c8 | 
[V:3] z8 | 
[V:4] z8 | 
[V:1] z8 | 
[V:2] B8 | 
[V:3] E8 | 
[V:4] z8 | 
[V:1] z8 | 
[V:2] A3Bc2d2- | 
[V:3] F8 | 
[V:4] z8 | 
[V:1] E8 | 
[V:2] d2cBc4 | 
[V:3] E8 | 
[V:4] z8 | 
[V:1] F8 | 
[V:2] d3cB2A2- | 
[V:3] D8 | 
[V:4] z8 | 
[V:1] E8 | 
[V:2] A2GFE2A2 | 
[V:3] z4A4- | 
[V:4] A,,8 | 
[V:1] D8 | 
[V:2] E3ED2G2- | 
[V:3] A2GFG4 | 
[V:4] B,,8 | 
[V:1] z8 | 
[V:2] G2FEF4 | 
[V:3] A4c4- | 
[V:4] A,,8 | 
[V:1] G8 | 
[V:2] G4z2d2 | 
[V:3] c2BAB4 | 
[V:4] G,,8 | 
[V:1] G8 | 
[V:2] e6f2 | 
[V:3] c8 | 
[V:4] C,6D,2 | 
[V:1] G4A4 | 
[V:2] g4f4 | 
[V:3] G4c4- | 
[V:4] E,4F,4 | 
[V:1] G4c4- | 
[V:2] e4z2g2- | 
[V:3] c2d2e4 | 
[V:4] C,8 | 
[V:1] c4B4 | 
[V:2] g2fed4 | 
[V:3] d8 | 
[V:4] G,8 | 
[V:1] c8 | 
[V:2] e8 | 
[V:3] c8 | 
[V:4] C,4z4 | 
[V:1] z8 | 
[V:2] d3ef2e2- | 
[V:3] z8 | 
[V:4] G,4A,2C2- | 
[V:1] z8 | 
[V:2] e2dcd4 | 
[V:3] z4G4 | 
[V:4] C2B,A,B,4 | 
[V:1] c8 | 
[V:2] c8 | 
[V:3] A4c4- | 
[V:4] C4A,4 | 
[V:1] d8 | 
[V:2] z4g4 | 
[V:3] c2BAB4 | 
[V:4] G,8 | 
[V:1] c8 | 
[V:2] e6f2 | 
[V:3] c8 | 
[V:4] C,6D,2 | 
[V:1] c8 | 
[V:2] g4a4- | 
[V:3] z4A4 | 
[V:4] E,4F,4 | 
[V:1] B8 | 
[V:2] a4g4- | 
[V:3] B4d4- | 
[V:4] G,8 | 
[V:1] A4c4 | 
[V:2] g4f4 | 
[V:3] d2cBc4 | 
[V:4] A,8 | 
[V:1] B4A4- | 
[V:2] g4f4 | 
[V:3] d8 | 
[V:4] G,4D,4 | 
[V:1] A2G2G4- | 
[V:2] g4e4 | 
[V:3] B4c4 | 
[V:4] G,4C,4 | 
[V:1] G4^F4 | 
[V:2] d8 | 
[V:3] A8 | 
[V:4] D,8 | 
[V:1] G8 | 
[V:2] B3cd2e2 | 
[V:3] G8 | 
[V:4] z4G,4- | 
[V:1] z8 | 
[V:2] d2g3fe2- | 
[V:3] z4c4- | 
[V:4] G,4E,4 | 
[V:1] z8 | 
[V:2] e2dcd4 | 
[V:3] c4A4 | 
[V:4] F,8 | 
[V:1] G8 | 
[V:2] e2g3fed | 
[V:3] B8 | 
[V:4] E,8 | 
[V:1] A8 | 
[V:2] c3de2f2 | 
[V:3] A8 | 
[V:4] z4A,4- | 
[V:1] c8 | 
[V:2] e2a3gf2- | 
[V:3] z4A4 | 
[V:4] A,4F,4 | 
[V:1] B8 | 
[V:2] f2ede4 | 
[V:3] B8 | 
[V:4] G,8 | 
[V:1] A8 | 
[V:2] f4z2F2 | 
[V:3] c6d2- | 
[V:4] F,8 | 
[V:1] G8 | 
[V:2] GABcd2e2 | 
[V:3] dcBAB4 | 
[V:4] z4G,4 | 
[V:1] A4B4 | 
[V:2] f4d2g2 | 
[V:3] c4B4 | 
[V:4] F,4G,4 | 
[V:1] c4B4- | 
[V:2] e2a3ge2 | 
[V:3] e6d2 | 
[V:4] A,4E,4 | 
[V:1] B2A2A4- | 
[V:2] f2e4d2 | 
[V:3] c4A4 | 
[V:4] A,4F,4 | 
[V:1] A4^G4 | 
[V:2] e4z2e2 | 
[V:3] B8 | 
[V:4] E,8 | 
[V:1] A8 | 
[V:2] c3de2f2 | 
[V:3] A4z2A2- | 
[V:4] A,,3B,,C,2D,2 | 
[V:1] z8 | 
[V:2] e2c2e3f | 
[V:3] ABc4BA | 
[V:4] A,,2A,4G,F, | 
[V:1] z8 | 
[V:2] g2e4dc | 
[V:3] G2B3AA2- | 
[V:4] E,2G,4F,E, | 
[V:1] z8 | 
[V:2] d4e4 | 
[V:3] A2GFG4 | 
[V:4] F,4E,4 | 
[V:1] A8 | 
[V:2] z2e3dc2- | 
[V:3] A8 | 
[V:4] A,,4z2A,2- | 
[V:1] c8 | 
[V:2] cBAGA4 | 
[V:3] z8 | 
[V:4] A,G,F,E,F,4 | 
[V:1] G8 | 
[V:2] B2c4BA | 
[V:3] e6dc | 
[V:4] E,2C,3D,E,F, | 
[V:1] G8 | 
[V:2] G2g3fe2 | 
[V:3] B4c4 | 
[V:4] G,4C,4 | 
[V:1] F8 | 
[V:2] d4z4 | 
[V:3] A4z2A2- | 
[V:4] D,8 | 
[V:1] G8 | 
[V:2] e4d4 | 
[V:3] AGFED2G2- | 
[V:4] C,4B,,4 | 
[V:1] A8 | 
[V:2] c8 | 
[V:3] G2^FE^F4 | 
[V:4] A,,8 | 
[V:1] D4E4 | 
[V:2] B4c4 | 
[V:3] G4z4 | 
[V:4] G,,4C,4 | 
[V:1] F4E4- | 
[V:2] A2d4c2 | 
[V:3] A8 | 
[V:4] D,4A,,4 | 
[V:1] E2D2D4- | 
[V:2] d4B4 | 
[V:3] F4G4 | 
[V:4] D,4G,,4 | 
[V:1] D4^C4 | 
[V:2] A8 | 
[V:3] E8 | 
[V:4] A,,8 | 
[V:1] D8 | 
[V:2] D3EFGA2- | 
[V:3] D4z2d2- | 
[V:4] A,3G,F,E,F,2- | 
[V:1] z8 | 
[V:2] A2G4FE | 
[V:3] d2cBc4 | 
[V:4] F,2E,D,E,4 | 
[V:1] z8 | 
[V:2] F4G4 | 
[V:3] d4B3c | 
[V:4] D,4G,,4 | 
[V:1] z8 | 
[V:2] z2g4f2 | 
[V:3] d2e3dc2- | 
[V:4] G,4A,4 | 
[V:1] G8 | 
[V:2] g4z2d2 | 
[V:3] c2BAB4 | 
[V:4] G,8 | 
[V:1] G8 | 
[V:2] e4d2g2- | 
[V:3] c4B2e2 | 
[V:4] C,D,E,F,G,2C,2 | 
[V:1] G8 | 
[V:2] gfe2d4 | 
[V:3] d2c4B2 | 
[V:4] G,2C,2G,4 | 
[V:1] E8 | 
[V:2] cdefg2a2- | 
[V:3] c4z2e2- | 
[V:4] C,4z2C2- | 
[V:1] z4G4 | 
[V:2] agf4e2 | 
[V:3] e2dcB4 | 
[V:4] C2B,A,G,4 | 
[V:1] A4c4 | 
[V:2] f4z2f2 | 
[V:3] c8 | 
[V:4] F,4A,4 | 
[V:1] B4A4- | 
[V:2] g4f4 | 
[V:3] d6c2 | 
[V:4] G,4D,4 | 
[V:1] A2G2G4- | 
[V:2] e2d4c2 | 
[V:3] B4G4 | 
[V:4] G,4E,4 | 
[V:1] G4^F4 | 
[V:2] d4z2d2 | 
[V:3] A8 | 
[V:4] D,8 | 
[V:1] G8 | 
[V:2] B3cd2e2- | 
[V:3] G4z4 | 
[V:4] G,,3A,,B,,2C,2- | 
[V:1] z8 | 
[V:2] e2dcB2e2- | 
[V:3] G3AB2c2- | 
[V:4] C,2B,,A,,G,,2A,,2- | 
[V:1] z8 | 
[V:2] edc2B4 | 
[V:3] cBA4^G2 | 
[V:4] A,,B,,C,D,E,4 | 
[V:1] A8 | 
[V:2] A4z4 | 
[V:3] A6c2- | 
[V:4] A,,4z2A,2- | 
[V:1] c8 | 
[V:2] z8 | 
[V:3] cBAGA4 | 
[V:4] A,G,F,E,F,4 | 
[V:1] G8 | 
[V:2] e3dc2B2- | 
[V:3] B4E2e2- | 
[V:4] E,8 | 
[V:1] A8 | 
[V:2] B2AGA4 | 
[V:3] e2dcd4 | 
[V:4] F,8 | 
[V:1] G8 | 
[V:2] B2G4c2- | 
[V:3] e4E2G2- | 
[V:4] E,4C,4 | 
[V:1] F8 | 
[V:2] c2BAB4 | 
[V:3] G2FEF4 | 
[V:4] D,8 | 
[V:1] E8 | 
[V:2] c4z2g2- | 
[V:3] G6A2 | 
[V:4] C,8 | 
[V:1] D8 | 
[V:2] g2fed2g2- | 
[V:3] B8 | 
[V:4] G,8 | 
[V:1] E6F2 | 
[V:2] gfe3dd2- | 
[V:3] c4A4 | 
[V:4] C,6D,2 | 
[V:1] G4F4- | 
[V:2] d2c2d4 | 
[V:3] G4A4 | 
[V:4] E,4D,4 | 
[V:1] F2E2E4- | 
[V:2] B4c4 | 
[V:3] E4G4 | 
[V:4] E,4C,4 | 
[V:1] E4D4 | 
[V:2] A4B4 | 
[V:3] F8 | 
[V:4] D,8 | 
[V:1] E8- | 
[V:2] c2e4dc | 
[V:3] E8- | 
[V:4] C,6B,,A,, | 
[V:1] E8- | 
[V:2] B2c4BA | 
[V:3] E8- | 
[V:4] G,,2A,,3B,,C,D, | 
[V:1] E8- | 
[V:2] G2A4G2 | 
[V:3] E8- | 
[V:4] E,2A,,2E,4 | 
[V:1] E8- | 
[V:2] A4c4 | 
[V:3] E8- | 
[V:4] A,,8 | 
[V:1] E8 |]  
[V:2] B8 |]  
[V:3] E8 |]  
[V:4] E,8 |]  



% FRACTION = 0.9375BUT SHOULD BE 0
